flaticon/emoticons/surprised-1.svg

<svg xmlns="http://www.w3.org/2000/svg" width="32" height="32" viewBox="0 0 24 24">
    <path d="M 10.984375 11.390625 C 10.984375 9.484375 9.707031 7.933594 8.136719 7.933594 C 6.566406 7.933594 5.289062 9.484375 5.289062 11.390625 C 5.289062 13.296875 6.566406 14.847656 8.136719 14.847656 C 9.707031 14.847656 10.984375 13.296875 10.984375 11.390625 Z M 8.136719 14.035156 C 7.015625 14.035156 6.101562 12.847656 6.101562 11.390625 C 6.101562 9.933594 7.015625 8.746094 8.136719 8.746094 C 9.257812 8.746094 10.167969 9.933594 10.167969 11.390625 C 10.167969 12.847656 9.257812 14.035156 8.136719 14.035156 Z M 8.136719 14.035156"/>
    <path d="M9.355469 11.390625C9.355469 10.378906 8.808594 9.558594 8.136719 9.558594 7.460938 9.558594 6.914062 10.378906 6.914062 11.390625 6.914062 12.402344 7.460938 13.21875 8.136719 13.21875 8.808594 13.21875 9.355469 12.402344 9.355469 11.390625zM16.269531 7.933594C14.703125 7.933594 13.421875 9.484375 13.421875 11.390625 13.421875 13.296875 14.703125 14.847656 16.269531 14.847656 17.839844 14.847656 19.117188 13.296875 19.117188 11.390625 19.117188 9.484375 17.839844 7.933594 16.269531 7.933594zM16.269531 14.035156C15.148438 14.035156 14.238281 12.847656 14.238281 11.390625 14.238281 9.933594 15.148438 8.746094 16.269531 8.746094 17.394531 8.746094 18.304688 9.933594 18.304688 11.390625 18.304688 12.847656 17.394531 14.035156 16.269531 14.035156zM16.269531 14.035156"/>
    <path d="M17.492188 11.390625C17.492188 10.378906 16.945312 9.558594 16.269531 9.558594 15.597656 9.558594 15.050781 10.378906 15.050781 11.390625 15.050781 12.402344 15.597656 13.21875 16.269531 13.21875 16.945312 13.21875 17.492188 12.402344 17.492188 11.390625zM15.050781 18.914062C15.050781 20.488281 13.777344 21.761719 12.203125 21.761719 10.628906 21.761719 9.355469 20.488281 9.355469 18.914062 9.355469 17.34375 10.628906 16.066406 12.203125 16.066406 13.777344 16.066406 15.050781 17.34375 15.050781 18.914062zM15.050781 18.914062"/>
    <path d="M 12 0 C 6.054688 0 1.21875 4.835938 1.21875 10.78125 L 1.21875 15.246094 C 1.21875 15.25 1.21875 15.25 1.21875 15.25 C 1.21875 15.25 1.21875 15.253906 1.21875 15.253906 L 1.21875 20.746094 C 1.21875 21.867188 2.132812 22.78125 3.253906 22.78125 L 5.917969 22.78125 C 5.9375 22.789062 5.957031 22.796875 5.976562 22.804688 C 7.402344 23.476562 9.121094 23.878906 11.078125 23.976562 C 11.121094 23.976562 11.164062 23.980469 11.210938 23.980469 C 11.46875 23.992188 11.730469 24 12 24 C 12.269531 24 12.53125 23.992188 12.792969 23.980469 C 12.835938 23.980469 12.878906 23.976562 12.921875 23.976562 C 14.878906 23.878906 16.597656 23.476562 18.023438 22.804688 C 18.042969 22.796875 18.0625 22.789062 18.082031 22.78125 L 20.746094 22.78125 C 21.867188 22.78125 22.78125 21.867188 22.78125 20.746094 L 22.78125 10.78125 C 22.78125 4.835938 17.945312 0 12 0 Z M 17.894531 21.964844 L 17.8125 22.007812 C 16.660156 22.566406 15.289062 22.929688 13.777344 23.089844 C 13.667969 23.101562 13.558594 23.113281 13.445312 23.125 C 13.285156 23.136719 13.125 23.148438 12.960938 23.15625 C 12.648438 23.175781 12.328125 23.1875 12 23.1875 C 11.671875 23.1875 11.351562 23.175781 11.039062 23.15625 C 10.875 23.148438 10.714844 23.136719 10.554688 23.121094 C 10.445312 23.113281 10.332031 23.101562 10.222656 23.089844 C 8.714844 22.929688 7.339844 22.566406 6.191406 22.007812 L 6.105469 21.964844 L 6.070312 21.964844 C 3.476562 20.65625 2.035156 18.34375 2.035156 15.253906 C 2.035156 15.253906 2.035156 15.25 2.035156 15.25 C 2.035156 15.25 2.035156 15.25 2.035156 15.246094 C 2.039062 10.019531 6.425781 5.550781 11.796875 5.289062 L 12.183594 5.289062 C 17.578125 5.550781 21.964844 10.023438 21.964844 15.253906 C 21.964844 18.34375 20.523438 20.65625 17.933594 21.964844 Z M 3.253906 21.964844 C 2.582031 21.964844 2.035156 21.417969 2.035156 20.746094 L 2.035156 19.027344 C 2.597656 20.195312 3.441406 21.1875 4.535156 21.964844 Z M 21.964844 20.746094 C 21.964844 21.417969 21.417969 21.964844 20.746094 21.964844 L 19.464844 21.964844 C 20.558594 21.1875 21.402344 20.195312 21.964844 19.027344 Z M 12.203125 4.472656 L 11.777344 4.476562 C 7.390625 4.691406 3.625 7.492188 2.035156 11.28125 L 2.035156 10.78125 C 2.035156 5.285156 6.503906 0.8125 12 0.8125 C 17.496094 0.8125 21.964844 5.285156 21.964844 10.78125 L 21.964844 11.265625 C 20.371094 7.484375 16.601562 4.6875 12.203125 4.472656 Z M 12.203125 4.472656"/>
</svg>

<svg xmlns="http://www.w3.org/2000/svg" width="32" height="32" viewBox="0 0 24 24">
    <path d="M10.984 11.39c0-1.906-1.277-3.456-2.847-3.456s-2.848 1.55-2.848 3.457c0 1.906 1.277 3.457 2.848 3.457 1.57 0 2.847-1.551 2.847-3.457zm-2.847 2.645c-1.121 0-2.035-1.187-2.035-2.644s.914-2.645 2.035-2.645c1.12 0 2.031 1.188 2.031 2.645s-.91 2.644-2.031 2.644zm0 0"/>
    <path d="M9.355 11.39c0-1.011-.546-1.831-1.218-1.831-.676 0-1.223.82-1.223 1.832 0 1.011.547 1.828 1.223 1.828.672 0 1.218-.817 1.218-1.828zm0 0M16.27 7.934c-1.567 0-2.848 1.55-2.848 3.457 0 1.906 1.281 3.457 2.848 3.457 1.57 0 2.847-1.551 2.847-3.457 0-1.907-1.277-3.457-2.847-3.457zm0 6.101c-1.122 0-2.032-1.187-2.032-2.644s.91-2.645 2.032-2.645c1.125 0 2.035 1.188 2.035 2.645s-.91 2.644-2.035 2.644zm0 0"/>
    <path d="M17.492 11.39c0-1.011-.547-1.831-1.222-1.831-.672 0-1.22.82-1.22 1.832 0 1.011.548 1.828 1.22 1.828.675 0 1.222-.817 1.222-1.828zm0 0M15.05 18.914a2.846 2.846 0 0 1-2.847 2.848 2.848 2.848 0 1 1 2.848-2.848zm0 0"/>
    <path d="M12 0C6.055 0 1.219 4.836 1.219 10.781v9.965c0 1.121.914 2.035 2.035 2.035h2.664l.059.024c1.425.672 3.144 1.074 5.101 1.172.043 0 .086.003.133.003.258.012.52.02.789.02.27 0 .531-.008.793-.02l.129-.003c1.957-.098 3.676-.5 5.101-1.172l.059-.024h2.664a2.039 2.039 0 0 0 2.035-2.035v-9.965C22.781 4.836 17.945 0 12 0zm5.895 21.965l-.082.043c-1.153.558-2.524.922-4.036 1.082l-.332.035c-.16.012-.32.023-.484.031a15.386 15.386 0 0 1-2.406-.035 9.536 9.536 0 0 1-.332-.031c-1.508-.16-2.883-.524-4.032-1.082l-.086-.043H6.07c-2.593-1.309-4.035-3.621-4.035-6.711v-.004-.004c.004-5.226 4.39-9.695 9.762-9.957h.387c5.394.262 9.78 4.734 9.78 9.965 0 3.09-1.44 5.402-4.03 6.71zm-14.641 0a1.22 1.22 0 0 1-1.219-1.219v-1.719a7.663 7.663 0 0 0 2.5 2.938zm18.71-1.219a1.22 1.22 0 0 1-1.218 1.219h-1.281a7.663 7.663 0 0 0 2.5-2.938zm-9.76-16.273l-.427.004c-4.386.214-8.152 3.015-9.742 6.804v-.5C2.035 5.285 6.504.812 12 .812c5.496 0 9.965 4.473 9.965 9.97v.484c-1.594-3.782-5.363-6.579-9.762-6.793zm0 0"/>
</svg>
